!!!COM: Palestrina, Giovanni Perluigi da
!!!OPR: Missa De Beata Marie Virginis (III)
!!!OMD: Gloria
!!!OTL: Domine Deus Agnus
**kern	**kern	**kern	**kern
*Ibass	*Itenor	*Itenor	*Icalto
!Bassus	!Tenor 2	!Tenor 1	!Altus
*clefF4	*clefGv2	*clefGv2	*clefG2
*k[]	*k[]	*k[]	*k[]
*G:mix	*G:mix	*G:mix	*G:mix
*M4/2	*M4/2	*M4/2	*M4/2
=49	=49	=49	=49
0r	0r	0r	1c
.	.	.	1f
=50	=50	=50	=50
0r	1r	0r	2e
.	.	.	2f
.	1G	.	2.g
.	.	.	4f
=51	=51	=51	=51
0r	1c	0r	4e
.	.	.	4d
.	.	.	2e
.	2B	.	2d
.	2c	.	[2c
=52	=52	=52	=52
0r	1d	1G	2c]
.	.	.	2B
.	1e	1c	4A
.	.	.	4B
.	.	.	2c
=53	=53	=53	=53
0r	2d	2B	2G
.	1c	2c	2A
.	.	1d	1G
.	2B	.	.
=54	=54	=54	=54
1C	1c	2.e	1g
.	.	4d	.
1F	1A	4c	1a
.	.	4B	.
.	.	[2c	.
=55	=55	=55	=55
2E	2r	2c]	2g
2F	2d	2A	2.a
1G	2d	4B	.
.	.	4c	4g
.	2B	[2d	[2g
=56	=56	=56	=56
1A	1c	4d]	4g]
.	.	4c	8f#
.	.	.	8e
.	.	1c	2f#
1G	2d	.	2.g
.	[2g	2B	.
.	.	.	4f
=57	=57	=57	=57
2r	2g]	2c	2e
1c	2f	2A	2c
.	2e	1G	2r
2B	2d	.	[2g
=58	=58	=58	=58
1A	1c	2r	2g]
.	.	1c	2f
2.G	2r	.	2e
.	[2d	2B	4d
4F	.	.	4e
=59	=59	=59	=59
4D	2d]	1A	4f
4E	.	.	4g
2F	2c	.	2.a
1G	1B	[1d	.
.	.	.	4g
.	.	.	[2g
=60	=60	=60	=60
1D	2.A	1d]	2g]
.	.	.	2f
.	4B	.	.
1r	4c	2r	4e
.	4d	.	4d
.	[2e	[2g	4c
.	.	.	4B
=61	=61	=61	=61
1r	2e]	2g]	2c
.	1d	2f	2d
1A	.	2.e	1a
.	2c	.	.
.	.	8d	.
.	.	8c	.
=62	=62	=62	=62
2G	1d	2B	2r
2.F	.	2A	1a
.	1r	1c	.
8E	.	.	.
8D	.	.	.
2E	.	.	2g
=63	=63	=63	=63
1D	2r	1d	1f
.	1a	.	.
1C	.	1r	1e
.	2g	.	.
=64	=64	=64	=64
4D	1f	2r	1d
4E	.	.	.
4F	.	1a	.
4G	.	.	.
4A	1e	.	2c
4B	.	.	.
2c	.	2g	2cc
=65	=65	=65	=65
1d	4d	1f	2b-
.	4e	.	.
.	2.f	.	2.a
2B-	.	1d	.
.	4e	.	8g
.	.	.	8f
2B-	[2d	.	2g
=66	=66	=66	=66
0A	2d]	0e	0a
.	4c#	.	.
.	4B	.	.
.	1c#	.	.
=67	=67	=67	=67
[0D	[0d	[0f#	[0a
=68	=68	=68	=68
0D]	0d]	0f#]	0a]
*-	*-	*-	*-
!!!CDT: 1525/^1526/-1594/2/2
!!!OCY: Italia
!!!AGN: Mass (Paraphrase)
!!!AST: renaissance, vocal
!!!ASW: Gregorian Mass
!!!PWK: Masses, Book Mantuan I
!!!RNB: Cadence finals: D
!!!YOR: Le Opere Complete, v. 18, p. 162
!!!YOO: Rome, Italy: Fratelli Scalera
!!!END: 1992//
!!!EED: John Miller
!!!YEC: Copyright 2000, John Miller
!!!YEN: United States of America
!!!YEM: Rights to all derivative electronic formats reserved.
!!!YEM: Refer to licensing agreement for further details.
!!!YEM: This file must be accompanied by the licensing agreement.
!!!YEM: A copy of the licensing agreement may be found at http://www.music-cog.ohio-state.edu/HumdrumDatabases/Palestrina/license.txt
!!!EMD: converted to Humdrum by Bret Aarden
